!!!COM: Haydn, Franz Joseph
!!!OTL: String Quartet in C Major
!!!OPS: Opus 50
!!!ONM: No. 2
!!!OMD: Vivace
!!!OMV: 1
!!!SCT: H III:45
!!!SCA: Thematisch-bibliographisches Werkevererzeichnis (A. van Hoboken)
!!!YOR: Trautwein Edition
!!!ENC: Frances Bennion
!!!CDT: 1732/3/31/-1809/5/31/
!!!CNT: Oesterreich
!!!YEC: Copyright (c) 1994, 2000 Center for Computer Assisted Research in the Humanities
!!!YEM: Rights to all derivative editions reserved.
!!!YEM: Refer to licensing agreement for further details.
!!!YEN: United States of America
**kern	**kern	**kern	**kern
*k[]	*k[]	*k[]	*k[]
*C:	*C:	*C:	*C:
*clefF4	*clefC3	*clefG	*clefG
*M3/4	*M3/4	*M3/4	*M3/4
4C	4r	4r	[2.cc
2r	4e	4g	.
.	4e	4g	.
=2	=2	=2	=2
2.r	4e	4g	4cc]
.	2r	2r	4b
.	.	.	4cc
=3	=3	=3	=3
4C	4r	4r	4cc#
2r	4f	4a	[2dd
.	4f	4a	.
=4	=4	=4	=4
2.r	4f	4a	4dd]
.	2r	2r	4cc#
.	.	.	4dd
=5	=5	=5	=5
[2.C	4r	4r	2.ff
.	4g	4b-	.
.	4g	4b-	.
=6	=6	=6	=6
2.C]	2.g	2.b-	4ee
.	.	.	4dd
.	.	.	4ee
=7	=7	=7	=7
2.FF	2.f	2.a	2aa
.	.	.	16gg
.	.	.	16ff
.	.	.	16ee
.	.	.	16dd
=8	=8	=8	=8
2.GG	2e	2g	2cc
.	4B	4f	4dd
=9	=9	=9	=9
4C	4c	4e	4cc
2r	2r	2r	2r
=10	=10	=10	=10
2.GG	2.G	2.g	2.g
=11	=11	=11	=11
4EE	4E	4e	4e
2r	2r	2r	2r
=12	=12	=12	=12
2.DD	2.A	2.f#	2cc
.	.	.	16b
.	.	.	16a
.	.	.	16g
.	.	.	16f#
=13	=13	=13	=13
4GG	4B	8g	4.g
.	.	8r	.
2r	2r	8d	.
.	.	8r	16a
.	.	.	16b
.	.	8B	16cc
.	.	.	16dd
.	.	8r	16ee
.	.	.	16ff#
=14	=14	=14	=14
8G	4d 4B	4G	4.gg
8r	.	.	.
8D	2r	2r	.
8r	.	.	16aa
.	.	.	16bb
8BB	.	.	16ccc
.	.	.	16ddd
8r	.	.	16eee
.	.	.	16fff#
=15	=15	=15	=15
4.GG	4d 4B	4b 4d	8ggg
.	.	.	8r
.	2r	2r	8ddd
16AA	.	.	8r
16BB	.	.	.
16C	.	.	8bb
16D	.	.	.
16E	.	.	8r
16F#	.	.	.
=16	=16	=16	=16
4.G	4G	4b 4d	8gg
.	.	.	8r
.	2r	2r	8dd
16A	.	.	8r
16B	.	.	.
16c	.	.	8b
16d	.	.	.
16e	.	.	8r
16f#	.	.	.
=17	=17	=17	=17
8g	8G	8B 8d	8G 8g
8r	8r	8r	8r
8d	8G	8d 8B	8G 8g
8r	8r	8r	8r
8B	8G	8d 8B	8G 8g
8r	8r	8r	8r
=18	=18	=18	=18
4G	4G	4d 4B	4G 4g
2r	2r	2r	2r
=19	=19	=19	=19
8B	8d	8g	8f
8r	8r	8r	8r
8B	8d	8g	8f
8r	8r	8r	8r
8B	8d	8g	8f
8r	8r	8r	8r
=20	=20	=20	=20
4B	4d	4g	4f
2r	2r	2r	2r
=21	=21	=21	=21
2.r	4r	4r	[2.cc
.	4e	4g	.
.	4e	4g	.
=22	=22	=22	=22
2.r	4d	4f	4cc]
.	2r	2r	4b
.	.	.	4cc
=23	=23	=23	=23
2.r	4r	4r	4cc#
.	4f	4a	[2dd
.	4f	4a	.
=24	=24	=24	=24
2.r	4e	4g	4dd]
.	2r	2r	4cc#
.	.	.	4dd
=25	=25	=25	=25
4r	4r	4r	2.ff
4c#	4g	4b-	.
4c#	4g	4b-	.
=26	=26	=26	=26
2.c#	2.g	2.b-	4ee
.	.	.	4dd
.	.	.	4ee
=27	=27	=27	=27
2d	2.f	2.a	4.ff
.	.	.	16gg
.	.	.	16aa
4F	.	.	16gg
.	.	.	16ff
.	.	.	16ee
.	.	.	16dd
=28	=28	=28	=28
2.G	2e	2g	2cc
.	4B	4f	4dd
=29	=29	=29	=29
4C	4c	4e	4cc
2r	2r	2r	2r
=30	=30	=30	=30
2.GG	2.G	2.g	2.g
=31	=31	=31	=31
4EE	4E	4e	4e
2r	2r	2r	2r
=32	=32	=32	=32
2.DD	2.A	2.f#	2cc
.	.	.	16b
.	.	.	16a
.	.	.	16g
.	.	.	16f#
=33	=33	=33	=33
4GG	8B	8g	4.g
.	8r	8r	.
2r	8b	8d	.
.	4.r	8r	16a
.	.	.	16b
.	.	8B	16cc
.	.	.	16dd
.	.	8r	16ee
.	.	.	16ff#
=34	=34	=34	=34
2EE	2g	2c#	2gg
4E	4a	4cc#	16ff#
.	.	.	16ee
.	.	.	16dd
.	.	.	16cc#
=35	=35	=35	=35
4.D	4f#	4dd	4dd
.	4r	4dd	2r
16E	.	.	.
16F#	.	.	.
16G	4b	4dd	.
16A	.	.	.
16B	.	.	.
16c#	.	.	.
=36	=36	=36	=36
4d	4b	4dd	4.dd
2r	4cc	4ee	.
.	.	.	16ee
.	.	.	16ff#
.	4b	4dd	16gg
.	.	.	16aa
.	.	.	16bb
.	.	.	16ccc#
=37	=37	=37	=37
4.D	4r	4r	4ddd
.	4a	4cc	2r
16E	.	.	.
16F#	.	.	.
16G	4a	4cc	.
16A	.	.	.
16B	.	.	.
16c#	.	.	.
=38	=38	=38	=38
4d	4a	4cc	4.dd
2r	4b	4dd	.
.	.	.	16ee
.	.	.	16ff#
.	4a	4cc	16gg
.	.	.	16aa
.	.	.	16bb
.	.	.	16ccc#
=39	=39	=39	=39
4.D	4r	4r	4ddd
.	4g	4b	2r
16E	.	.	.
16F#	.	.	.
16G	4g	4b	.
16A	.	.	.
16B	.	.	.
16c#	.	.	.
=40	=40	=40	=40
4d	4g	4b	4.dd
2r	4a	4cc	.
.	.	.	16ee
.	.	.	16ff#
.	4g	4b	16gg
.	.	.	16aa
.	.	.	16bb
.	.	.	16ccc#
=41	=41	=41	=41
4.D	4f#	4a	4ddd
.	4f#	4a	2r
16E	.	.	.
16F#	.	.	.
16G	4f#	4a	.
16A	.	.	.
16B	.	.	.
16c#	.	.	.
=42	=42	=42	=42
8d	4f#	4a	2.r
8c#	.	.	.
8d	2r	2r	.
8B	.	.	.
8c	.	.	.
8A	.	.	.
=43	=43	=43	=43
4G	8g	8b	4r
.	8b	8dd	.
2r	8g	8b	4ddd
.	8b	8dd	.
.	8g	8b	4ddd
.	8b	8dd	.
=44	=44	=44	=44
4D	8a	8cc	2ff#
.	8cc	8dd	.
2r	8a	8cc	.
.	8cc	8dd	.
.	8a	8cc	8aa
.	8cc	8dd	16gg
.	.	.	16aa
=45	=45	=45	=45
4G	8g	8b	4gg
.	8b	8dd	.
2r	8g	8b	4dd
.	8b	8dd	.
.	8g	8b	8bb
.	8b	8dd	16aa
.	.	.	16bb
=46	=46	=46	=46
4D	8d	8cc	4aa
.	8f#	8dd	.
2r	8d	8cc	4dd
.	8f#	8dd	.
.	8d	8a	8ccc
.	8f#	8dd	16bb
.	.	.	16ccc
=47	=47	=47	=47
4G	8g	8b	4bb
.	8b	8dd	.
2r	8g	8b	4ddd
.	8b	8dd	.
.	8g	8b	4ddd
.	8b	8dd	.
=48	=48	=48	=48
4D	8f#	8cc	4ddd
.	8a	8dd	.
2r	8a	8cc	4ff#
.	8cc	8dd	.
.	8a	8cc	8aa
.	8cc	8dd	16gg
.	.	.	16aa
=49	=49	=49	=49
4G	8g	8b	4gg
.	8b	8dd	.
2r	8g	8b	4dd
.	8b	8dd	.
.	8g	8b	8bb
.	8b	8dd	16aa
.	.	.	16bb
=50	=50	=50	=50
4D	8d	8cc	4aa
.	8f#	8dd	.
2r	8d	8cc	4dd
.	8f#	8dd	.
.	8d	8a	8ccc
.	8f#	8dd	16bb
.	.	.	16ccc
=51	=51	=51	=51
4G	4g	8b	4bb
.	.	8dd	.
4r	4r	4b	4gg
4G	4g	4b	4eee
=52	=52	=52	=52
2A	2f#	[2.a	2ddd
4G	4e	.	4ccc#
=53	=53	=53	=53
4F#	4d	4a]	8.ddd
.	.	.	16eee
2r	2r	2r	8.fff#
.	.	.	16ggg
.	.	.	8.aaa
.	.	.	16bbb
=54	=54	=54	=54
2.r	2.r	2.r	4cccc
.	.	.	2r
=55	=55	=55	=55
8.D	4a	4f#	2.cc
16E	.	.	.
8.F#	4d	4a	.
16G	.	.	.
8.A	4f#	[4d	.
16F#	.	.	.
=56	=56	=56	=56
4G	4g	4d]	4b
4C	4e	4e	4a
4C	4c	4a	4ee
=57	=57	=57	=57
2.D	2B	2g	2g
.	4c	4f#	4a
=58	=58	=58	=58
4r	2.r	4r	4gg
4B	.	4g	4dd
4B	.	4g	4dd
=59	=59	=59	=59
4r	2.r	4r	4gg
4B	.	4g	4dd#
4B	.	4g	4dd#
=60	=60	=60	=60
[2.c	2.r	[2.g	2.dd#
=61	=61	=61	=61
4c]	2.r	4g]	4ee
2r	.	2r	8dd
.	.	.	8cc
.	.	.	8b
.	.	.	8a
=62	=62	=62	=62
2.D	2d	2B	2g
.	4f#	4c	4a
=63	=63	=63	=63
4r	2.r	4r	4gg
4B	.	4g	4dd
4B	.	4g	4dd
=64	=64	=64	=64
4r	2.r	4r	4gg
4B	.	4g	4ee-
4B	.	4g	4ee-
=65	=65	=65	=65
[2.c	2.r	2.g	[2.ee-
=66	=66	=66	=66
2.c]	2.e-	[2.a-	4ee-]
.	.	.	4ee-
.	.	.	4ee-
=67	=67	=67	=67
2.B-	4f	4a-]	2.ee-
.	4f	4a-	.
.	4f	4a-	.
=68	=68	=68	=68
2.E-	2g	2.b-	4dd-
.	.	.	4cc
.	[4b-	.	4dd-
=69	=69	=69	=69
2.A-	4b-]	2.e-	4dd-
.	4a-	.	4cc
.	4a-	.	4cc
=70	=70	=70	=70
2.E	2.G	2.B-	4r
.	.	.	4cc
.	.	.	4cc
=71	=71	=71	=71
2.F	2.A-	2.A-	4cc
.	.	.	4dd-
.	.	.	4cc
=72	=72	=72	=72
2.G	2.B-	2.e	4r
.	.	.	4cc
.	.	.	4cc
=73	=73	=73	=73
2.A-	2.c	2.f	4cc
.	.	.	4dd-
.	.	.	4cc
=74	=74	=74	=74
2.E	2.G	2.B-	4r
.	.	.	4cc
.	.	.	4cc
=75	=75	=75	=75
2.F	2.A-	2.A-	4cc
.	.	.	4dd-
.	.	.	4cc
=76	=76	=76	=76
2.E-	2.G	2.c	4r
.	.	.	4cc
.	.	.	4cc
=77	=77	=77	=77
[2.D	2.A	2.f#	4cc
.	.	.	4dd
.	.	.	4cc
=78	=78	=78	=78
2.D_	4G	4g	4b-
.	4A	4f#	4a
.	4G	4g	4b-
=79	=79	=79	=79
4D]	4d	4f#	4a
2r	4f#	4a	4dd
.	4f#	4a	4dd
=80	=80	=80	=80
2.r	4g	4b-	2dd
.	4a	4cc	.
.	4g	4b-	4cc#
=81	=81	=81	=81
4r	4f#	4a	2dd
4DD	4r	4f#	.
4DD	4d	4cc	4ff#
=82	=82	=82	=82
4EE-	2c#	4b-	2gg
4DD	.	4r	.
4EE-	4G	4g	4cc#
=83	=83	=83	=83
4DD	4A	4f#	4dd
2r	2r	4dd	2r
.	.	4dd	.
=84	=84	=84	=84
2.r	2.r	8dd	2.r
.	.	8cc#	.
.	.	8dd	.
.	.	8b	.
.	.	8cc	.
.	.	8a	.
=85	=85	=85	=85
4r	4r	[2.g	4r
4B	4d	.	4gg
4B	4d	.	4gg
=86	=86	=86	=86
4B	4d	4g]	[2.gg
4A	4c	4f#	.
4B	4d	4g	.
=87	=87	=87	=87
2.c	2.e	4g#	2.gg_
.	.	2a	.
=88	=88	=88	=88
4d	4f	4b	2.gg_
4c#	4e	4a#	.
4d	4f	4b	.
=89	=89	=89	=89
2.e	2.g	2dd	2.gg_
.	.	4cc	.
=90	=90	=90	=90
2.B	4dd	4ff	2.gg_
.	4cc#	4ee	.
.	4dd	4ff	.
=91	=91	=91	=91
2.c	4cc	4ee	4gg]
.	4r	4cc	4ee
.	4e	4a	4cc
=92	=92	=92	=92
2d	4d	4g	4b
.	4r	4a	4cc
4D	4c	4f#	4a
=93	=93	=93	=93
[2.BB	[2.d	[2.g	8g
.	.	.	16a
.	.	.	16b
.	.	.	16cc
.	.	.	16dd
.	.	.	16ee
.	.	.	16ff#
.	.	.	16gg
.	.	.	16aa
.	.	.	16bb
.	.	.	16ccc
=94	=94	=94	=94
4BB]	4d]	4g]	8ddd
.	.	.	8bb
4BB	4d	4g	8gg
.	.	.	8dd
4BB	4d	4g	8b
.	.	.	8g
=95	=95	=95	=95
4C	4e	4g	4e
2r	2r	2r	4eee
.	.	.	4r
=96	=96	=96	=96
2.r	2.r	4c	8r
.	.	.	8ddd#
.	.	2r	8eee
.	.	.	8ccc#
.	.	.	8ddd
.	.	.	8bb
=97	=97	=97	=97
2.r	2.r	2.r	8ccc
.	.	.	8gg#
.	.	.	8aa
.	.	.	8bb
.	.	.	8ccc
.	.	.	8aa
=98	=98	=98	=98
4D	[2.f#	4r	[2.aa
4D	.	4cc	.
4D	.	4cc	.
=99	=99	=99	=99
4DD	2.f#]	4cc	2.aa]
4DD	.	4b	.
4DD	.	4cc	.
=100	=100	=100	=100
8GG	4g	4b	4gg
8BB	.	.	.
8D	2r	2r	2r
8G	.	.	.
8B	.	.	.
8d	.	.	.
=101	=101	=101	=101
8D	2F#	2.c	2.dd
8F#	.	.	.
8A	.	.	.
8c	.	.	.
8d	4A	.	.
8f#	.	.	.
=102	=102	=102	=102
4g	8G	4B	4b
.	8B	.	.
2r	8d	2r	2r
.	8g	.	.
.	8b	.	.
.	8dd	.	.
=103	=103	=103	=103
2.r	8d	2.a	2.ccc
.	8f#	.	.
.	8a	.	.
.	8cc	.	.
.	8dd	.	.
.	8ff#	.	.
=104	=104	=104	=104
2.r	4gg	8g	4bb
.	.	8b	.
.	2r	8dd	2r
.	.	8gg	.
.	.	8bb	.
.	.	8ddd	.
=105	=105	=105	=105
2.D	2.a	8ccc	2.fff#
.	.	8aa	.
.	.	8ff#	.
.	.	8dd	.
.	.	8cc	.
.	.	8a	.
=106	=106	=106	=106
4GG	4b	4g	4ggg
2r	2r	2r	2r
=107	=107	=107	=107
2.r	[2.g	4r	2.r
.	.	4b	.
.	.	4g	.
=108	=108	=108	=108
2.r	4g]	4a	2.r
.	4f#	[2dd	.
.	4g	.	.
=109	=109	=109	=109
2.r	4g#	4dd]	2.r
.	[2a	4cc	.
.	.	4a	.
=110	=110	=110	=110
2.r	4a]	4b	2.r
.	4g#	4ee	.
.	4a	4cc	.
=111	=111	=111	=111
2.r	2.cc	4a	2.r
.	.	4dd	.
.	.	4f#	.
=112	=112	=112	=112
2.r	4b	4g	2.r
.	4g	4b	.
.	4f	[4dd	.
=113	=113	=113	=113
[2.c	4e	4dd]	4r
.	4g	4cc	4ee
.	4g	4r	4cc
=114	=114	=114	=114
4c]	4g	4r	4dd
4B	2r	4g	[2gg
4c	.	4a	.
=115	=115	=115	=115
4c#	2.r	4b-	4gg]
[2d	.	4a	4ff
.	.	4a	4dd
=116	=116	=116	=116
4d]	4r	[2.a	4ee
4c#	4e	.	4aa
4e	4c#	.	4gg
=117	=117	=117	=117
4d	[2.d	4a]	[2.ff
4B-	.	2r	.
4G#	.	.	.
=118	=118	=118	=118
[2.A	4d]	2.r	4ff]
.	4c#	.	4ee
.	4d	.	4ff
=119	=119	=119	=119
4A]	4d#	2.r	4ff#
4E	2e	.	2gg
4C#	.	.	.
=120	=120	=120	=120
2D	4f	[2.f	4ff
.	4A	.	4f
4D	4A	.	4f
=121	=121	=121	=121
4D	4B-	4f]	4f
2r	2r	4e	2r
.	.	4f	.
=122	=122	=122	=122
2C	4r	4f#	4r
.	4B-	[2g	4e
4r	4B-	.	4e
=123	=123	=123	=123
2.r	4B-	4g]	4e
.	2r	4f#	2r
.	.	4g	.
=124	=124	=124	=124
2.FF	4r	2.b-	4r
.	4c	.	4e-
.	4c	.	4e-
=125	=125	=125	=125
2.FF#	2.c	4a	4e-
.	.	4g	2r
.	.	4a	.
=126	=126	=126	=126
8GG	4B-	4b-	[2.gg
8BB-	.	.	.
8D	4B-	2r	.
8G	.	.	.
8B-	4r	.	.
8d	.	.	.
=127	=127	=127	=127
4g	2.r	2.r	4gg]
2r	.	.	4ff#
.	.	.	4gg
=128	=128	=128	=128
2.r	8cc	2.r	4gg#
.	8a	.	.
.	8f#	.	[2aa
.	8d	.	.
.	8A	.	.
.	8F#	.	.
=129	=129	=129	=129
2.r	4D	2.r	4aa]
.	2r	.	4gg#
.	.	.	4aa
=130	=130	=130	=130
2.r	2.r	8G	2.ccc
.	.	8d	.
.	.	8f	.
.	.	8g	.
.	.	8b	.
.	.	8dd	.
=131	=131	=131	=131
2.r	2.r	4ff	4bb
.	.	2r	4aa
.	.	.	4bb
=132	=132	=132	=132
2.r	4r	4r	[2.ccc
.	4ee	4gg	.
.	4ee	4gg	.
=133	=133	=133	=133
2.r	4dd	4ff	4ccc]
.	2r	2r	4ddd
.	.	.	4ccc
=134	=134	=134	=134
2.r	4r	4r	4bb
.	4dd	4ff	[2bb-
.	4dd	4ff	.
=135	=135	=135	=135
2.r	4cc	4ee	4bb-]
.	2r	2r	4ccc
.	.	.	4bb-
=136	=136	=136	=136
2.r	[2.f	4r	2.gg#
.	.	4cc	.
.	.	4cc	.
=137	=137	=137	=137
2.r	4f]	[2.cc	4aa
.	4g	.	4bb-
.	4f	.	4aa
=138	=138	=138	=138
2.r	4e	2.cc]	4gg
.	[2e-	.	4ccc
.	.	.	4aa
=139	=139	=139	=139
2.r	4e-]	2.a	[2.ff
.	4f	.	.
.	4e-	.	.
=140	=140	=140	=140
[2.G	2.d	[2.b-	4ff]
.	.	.	4gg
.	.	.	4ff
=141	=141	=141	=141
4G]	[2.c	4b-]	[2.ee
4A	.	4cc	.
4G	.	4b-	.
=142	=142	=142	=142
4F#	4c]	2.a	4ee]
[2F	4d	.	4dd
.	4d	.	4cc
=143	=143	=143	=143
4F]	2.d	2.g	2.b
4G	.	.	.
4F	.	.	.
=144	=144	=144	=144
4E	4c	[2.gg	4b-
4E	4c	.	4b-
4E	4c	.	4b-
=145	=145	=145	=145
4F	4c	4gg]	4a
2r	2r	4ff	2r
.	.	4gg	.
=146	=146	=146	=146
4r	4r	4gg#	4r
4F#	4e-	[2aa	4cc
4F#	4e-	.	4cc
=147	=147	=147	=147
4G	4d	4aa]	4b
2r	2r	4gg	2r
.	.	4aa	.
=148	=148	=148	=148
4r	4r	4aa#	4r
4G#	4f	[2bb	4dd
4G#	4f	.	4dd
=149	=149	=149	=149
4A	4e	4bb]	2cc
2r	4r	4aa	.
.	4A	[4ccc	4ee
=150	=150	=150	=150
2.F	4a	4ccc]	2.dd#
.	4b	4bb	.
.	8cc	4aa	.
.	8a	.	.
=151	=151	=151	=151
4.E	4e	4gg#	4ee
.	4r	4ee	2r
16F#	.	.	.
16G#	.	.	.
16A	4cc	4ee	.
16B	.	.	.
16c	.	.	.
16d	.	.	.
=152	=152	=152	=152
4e	4cc	4ee	4.ee
2r	4dd	4ff	.
.	.	.	16ff#
.	.	.	16gg#
.	4cc	4ee	16aa
.	.	.	16bb
.	.	.	16ccc
.	.	.	16ddd
=153	=153	=153	=153
4.E	4r	4r	4eee
.	4b	4dd	2r
16F#	.	.	.
16G#	.	.	.
16A	4b	4dd	.
16B	.	.	.
16c	.	.	.
16d	.	.	.
=154	=154	=154	=154
4e	4b	4dd	4.ee
2r	4cc	4ee	.
.	.	.	16ff#
.	.	.	16gg#
.	4b	4dd	16aa
.	.	.	16bb
.	.	.	16ccc
.	.	.	16ddd
=155	=155	=155	=155
4.E	4r	4r	4eee
.	4a	4cc	2r
16F#	.	.	.
16G#	.	.	.
16A	4a	4cc	.
16B	.	.	.
16c	.	.	.
16d	.	.	.
=156	=156	=156	=156
4e	4a	4cc	4.ee
2r	4b	4dd	.
.	.	.	16ff#
.	.	.	16gg#
.	4a	4cc	16aa
.	.	.	16bb
.	.	.	16ccc
.	.	.	16ddd
=157	=157	=157	=157
4.E	4g#	4b	4eee
.	4g#	4b	2r
16F#	.	.	.
16G#	.	.	.
16A	4g#	4b	.
16B	.	.	.
16c	.	.	.
16d	.	.	.
=158	=158	=158	=158
8e	4g#	4b	2.r
8f	.	.	.
8e	2r	2r	.
8d	.	.	.
8c	.	.	.
8B	.	.	.
=159	=159	=159	=159
8A	8c	4r	2.r
8c	8e	.	.
8A	8c	4ee	.
8c	8e	.	.
8A	8c	4ee	.
8c	8e	.	.
=160	=160	=160	=160
8B	8d	2g#	2.r
8d	8e	.	.
8B	8d	.	.
8d	8e	.	.
8E	8B	8b	.
8G#	8e	16a	.
.	.	16b	.
=161	=161	=161	=161
8A	8c	4a	2.r
8c	8e	.	.
8A	8c	4e	.
8c	8e	.	.
8A	8c	8cc	.
8c	8e	16b	.
.	.	16cc	.
=162	=162	=162	=162
8G#	8d	4b	2.r
8E	8e	.	.
8G#	8d	4e	.
8E	8e	.	.
8G#	8B	8dd	.
8E	8e	16cc	.
.	.	16dd	.
=163	=163	=163	=163
4A	8c	8cc	4r
.	8e	8a	.
2r	8A	8c	4ccc
.	8c	8e	.
.	8A	8c	4ccc
.	8c	8e	.
=164	=164	=164	=164
2.C	8G	8B-	2ee
.	8B-	8c	.
.	8G	8B-	.
.	8B-	8c	.
.	8G	8B-	8gg
.	8B-	8c	16ff
.	.	.	16gg
=165	=165	=165	=165
4FF	8F	8A	4ff
.	8A	8c	.
2r	8F	8A	4cc
.	8A	8c	.
.	8F	8A	8aa
.	8A	8c	16gg
.	.	.	16aa
=166	=166	=166	=166
4C	8E	8B-	4gg
.	8C	8c	.
2r	8E	8B-	4cc
.	8C	8c	.
.	8E	8G	8bb-
.	8C	8c	16aa
.	.	.	16bb-
=167	=167	=167	=167
4F	4F	4A	4aa
2r	4f	4a	2r
.	4f	4a	.
=168	=168	=168	=168
2.r	2c#	2e	4r
.	.	.	4aa
.	8e	8g	4aa
.	16d	16f	.
.	16e	16g	.
=169	=169	=169	=169
4r	4d	4f	8aa
.	.	.	8ccc#
4f	4a	4d	8ddd
.	.	.	8ccc#
4f	4a	4r	8ddd
.	.	.	8eee
=170	=170	=170	=170
2B	2d	2.r	4fff
.	.	.	4ddd
8d	8f	.	4bb
16c	16e	.	.
16d	16f	.	.
=171	=171	=171	=171
4c	4e	2.r	4ccc
4c	4e	.	8ccc
.	.	.	8bb
4c	4e	.	8ccc
.	.	.	8ddd
=172	=172	=172	=172
2F#	2A	2.r	8eee
.	.	.	8ccc
.	.	.	8bb
.	.	.	8aa
8A	8c	.	8gg
16G	16B	.	8ff#
16A	16c	.	.
=173	=173	=173	=173
8G	8B	2g	4gg
8A	8c	.	.
8B	8d	.	4gg
8A	8c	.	.
8B	8d	8g	4gg
8c	8e	8a	.
=174	=174	=174	=174
4d	4f	4b	4gg
4d	4f	4b	4gg
4d	4f	4b	4gg
=175	=175	=175	=175
4d	4f	4b	4gg
2r	2r	2r	2r
=176	=176	=176	=176
4C	4r	4r	[2.cc
2r	4e	4g	.
.	4e	4g	.
=177	=177	=177	=177
2.r	4e	4g	4cc]
.	2r	2r	4b
.	.	.	4cc
=178	=178	=178	=178
4C	4r	4r	4cc#
2r	4f	4a	[2dd
.	4f	4a	.
=179	=179	=179	=179
2.r	4f	4a	4dd]
.	2r	2r	4cc#
.	.	.	4dd
=180	=180	=180	=180
[2.C	4r	4r	2.ff
.	4g	4b-	.
.	4g	4b-	.
=181	=181	=181	=181
2.C]	2.g	2.b-	4ee
.	.	.	4dd
.	.	.	4ee
=182	=182	=182	=182
2.FF	2.f	2.a	2aa
.	.	.	16gg
.	.	.	16ff
.	.	.	16ee
.	.	.	16dd
=183	=183	=183	=183
2.GG	2e	2g	2cc
.	4B	4f	4dd
=184	=184	=184	=184
4C	4c	4e	4cc
2r	2r	2r	2r
=185	=185	=185	=185
2.GG	2.G	2.g	2.g
=186	=186	=186	=186
4EE	4E	4e	4e
2r	2r	2r	2r
=187	=187	=187	=187
2.DD	2.A	2.f#	2cc
.	.	.	16b
.	.	.	16a
.	.	.	16g
.	.	.	16f#
=188	=188	=188	=188
4GG	4B	8g	4.g
.	.	8r	.
2r	2r	8d	.
.	.	8r	16a
.	.	.	16b
.	.	8B	16cc
.	.	.	16dd
.	.	8r	16ee
.	.	.	16ff#
=189	=189	=189	=189
8G	4B 4d	4G	4.gg
8r	.	.	.
8D	2r	2r	.
8r	.	.	16aa
.	.	.	16bb
8BB	.	.	16ccc
.	.	.	16ddd
8r	.	.	16eee
.	.	.	16fff#
=190	=190	=190	=190
4.GG	4d 4B	4b 4d	4ggg
.	2r	2r	8ddd
16AA	.	.	8r
16BB	.	.	.
16C	.	.	8bb
16D	.	.	.
16E	.	.	8r
16F#	.	.	.
=191	=191	=191	=191
4.G	4G	4b 4d	8gg
.	.	.	8r
.	2r	2r	8dd
16A	.	.	8r
16B	.	.	.
16c	.	.	8b
16d	.	.	.
16e	.	.	8r
16f#	.	.	.
=192	=192	=192	=192
8g	8G	8d 8B	8g 8G
8r	8r	8r	8r
8d	8G	8d 8B	8g 8G
8r	8r	8r	8r
8B	8G	8d 8B	8g 8G
8r	8r	8r	8r
=193	=193	=193	=193
4G	4G	4d 4B	4G 4g
2r	2r	2r	2r
=194	=194	=194	=194
8B	8d	8g	8f
8r	8r	8r	8r
8B	8d	8g	8f
8r	8r	8r	8r
8B	8d	8g	8f
8r	8r	8r	8r
=195	=195	=195	=195
4B	4d	4g	4f
2r	2r	2r	2r
=196	=196	=196	=196
[2.C	2.r	2.r	2.r
=197	=197	=197	=197
4C]	[2.G	2.r	2.r
4BB	.	.	.
4C	.	.	.
=198	=198	=198	=198
4C#	4G]	2.r	2.r
[2D	4F#	.	.
.	4G	.	.
=199	=199	=199	=199
4D]	4G#	2.r	2.r
4C#	[2A	.	.
4D	.	.	.
=200	=200	=200	=200
[2.F	4A]	2.r	2.r
.	4G#	.	.
.	4A	.	.
=201	=201	=201	=201
4F]	[2.c	2.r	2.r
4E	.	.	.
4F#	.	.	.
=202	=202	=202	=202
2G	4c]	2.r	2.r
.	4B	.	.
4F	[4d	.	.
=203	=203	=203	=203
2E	4d]	2.r	[2.gg
.	4c	.	.
4D	4f	.	.
=204	=204	=204	=204
4C	4e	[2.cc	4gg]
2r	2r	.	4aa
.	.	.	4gg
=205	=205	=205	=205
2.r	2.r	4cc]	4ff#
.	.	4dd	[2ff
.	.	4cc	.
=206	=206	=206	=206
2.r	2.r	4b	4ff]
.	.	[2b-	4gg
.	.	.	4ff
=207	=207	=207	=207
2.r	[2.c	4b-]	2.ee
.	.	4cc	.
.	.	4b-	.
=208	=208	=208	=208
[2.F	4c]	4a	4ff
.	4d	4b-	2r
.	4c	4a	.
=209	=209	=209	=209
4F]	4B	2.g	2.r
4G	[2B-	.	.
4F	.	.	.
=210	=210	=210	=210
4E	4B-]	2c	[2.gg
2E-	4c	.	.
.	4G	4r	.
=211	=211	=211	=211
2D	4A	[2.cc	4gg]
.	4a	.	4ff#
4E	4g	.	4gg
=212	=212	=212	=212
2.F#	4f#	4cc]	4gg#
.	4d	4b	[2aa
.	4d	4cc	.
=213	=213	=213	=213
[2.G	2d	4b	4aa]
.	.	4b	4gg
.	4r	4cc	4aa
=214	=214	=214	=214
4G]	4r	4cc#	4aa#
4GG 4G	4d 4f	2dd	2bb
4G 4GG	4f 4d	.	.
=215	=215	=215	=215
4r	4r	4ff	4ddd
4G 4GG	4e 4c	2ee	2ccc
4G 4GG	4e 4c	.	.
=216	=216	=216	=216
4r	4r	4cc	4aa
4GG 4G	4e- 4c	2a	2ff#
4GG 4G	4e- 4c	.	.
=217	=217	=217	=217
4r	4r	4cc	4aa
4GG 4G	4d 4B	2b	2gg
4G 4GG	4d 4B	.	.
=218	=218	=218	=218
2.r	2.r	4b	4dd
.	.	4b	4dd
.	.	4cc#	4ee
=219	=219	=219	=219
2.r	2.r	2ee	2gg
.	.	4dd	4ff
=220	=220	=220	=220
4B	4d	2.r	2.r
4B	4d	.	.
4c#	4e	.	.
=221	=221	=221	=221
2e	2g	2.r	2.r
4d	4f	.	.
=222	=222	=222	=222
2.r	2.r	4b	4dd
.	.	4b	4dd
.	.	4cc#	4ee
=223	=223	=223	=223
2.r	2.r	2.ee	2.gg
=224	=224	=224	=224
2.G	2.B	2.dd	2.ff
=225	=225	=225	=225
4c	8c	8e	4r
.	8e	8g	.
2r	8c	8e	4gg
.	8e	8g	.
.	8c	8e	4gg
.	8e	8g	.
=226	=226	=226	=226
4G	8d	8f	2b
.	8f	8g	.
2r	8d	8f	.
.	8f	8g	.
.	8d	8f	8dd
.	8f	8g	16cc
.	.	.	16dd
=227	=227	=227	=227
4C	8c	8e	4cc
.	8e	8g	.
2r	8c	8e	4g
.	8e	8g	.
.	8c	8e	8ee
.	8e	8g	16dd
.	.	.	16ee
=228	=228	=228	=228
4GG	8G	8f	4dd
.	8B	8g	.
2r	8G	8f	4g
.	8B	8g	.
.	8G	8d	8ff
.	8B	8g	16ee
.	.	.	16ff
=229	=229	=229	=229
4C	8c	8e	8ee
.	8e	8g	8ff
2r	8c	8e	8ff#
.	8e	8g	8gg
.	8c	8e	8aa
.	8e	8g	8gg
=230	=230	=230	=230
4GG	8d	8f	4gg
.	8f	8g	.
2r	8d	8f	4b
.	8f	8g	.
.	8d	8f	8dd
.	8f	8g	16cc
.	.	.	16dd
=231	=231	=231	=231
4C	8c	8e	4cc
.	8e	8g	.
2r	8c	8e	4g
.	8e	8g	.
.	8c	8e	8ee
.	8e	8g	16dd
.	.	.	16ee
=232	=232	=232	=232
4G	8G	8f	4dd
.	8B	8g	.
2r	8G	8f	4g
.	8B	8g	.
.	8G	8d	8ff
.	8B	8g	16ee
.	.	.	16ff
=233	=233	=233	=233
4C	4c	8e	4ee
.	.	8g	.
4r	4r	4e	4cc
4C	4c	4e	4aa
=234	=234	=234	=234
2D	2B	[2.d	2gg
4C	4A	.	4ff#
=235	=235	=235	=235
4BB	4G	4d]	8.gg
.	.	.	16aa
2r	2r	2r	8.bb
.	.	.	16ccc
.	.	.	8.ddd
.	.	.	16eee
=236	=236	=236	=236
2.r	2.r	2.r	4fff
.	.	.	2r
=237	=237	=237	=237
8.G	4d	4b	2.ff
16A	.	.	.
8.B	4G	4dd	.
16c	.	.	.
8.d	4B	[4g	.
16B	.	.	.
=238	=238	=238	=238
4c	4c	4g]	4ee
4F	4a	4a	4dd
4F	4f	4dd	4aa
=239	=239	=239	=239
2.G	2e	2cc	2cc
.	4f	4b	4dd
=240	=240	=240	=240
2.r	4r	4r	4ccc
.	4e	4cc	4gg
.	4e	4cc	4gg
=241	=241	=241	=241
2.r	4r	4r	4ccc
.	4e	4cc	4gg#
.	4e	4cc	4gg#
=242	=242	=242	=242
2.r	[2.f	[2.cc	2.gg#
=243	=243	=243	=243
2.r	4f]	4cc]	4aa
.	2r	2r	8gg
.	.	.	8ff
.	.	.	8ee
.	.	.	8dd
=244	=244	=244	=244
2.G	2G	2e	2cc
.	4B	4f	4dd
=245	=245	=245	=245
4r	2.r	4r	4ccc
4e	.	4cc	4gg
4e	.	4cc	4gg
=246	=246	=246	=246
4r	2.r	4r	4ccc
4e	.	4cc	4aa-
4e	.	4cc	4aa-
=247	=247	=247	=247
[2.f	2.r	2.cc	[2.aa-
=248	=248	=248	=248
2.f]	2.a-	[2.dd-	4aa-]
.	.	.	4aa-
.	.	.	4aa-
=249	=249	=249	=249
2.e-	4b-	4dd-]	2.aa-
.	4b-	4dd-	.
.	4b-	4dd-	.
=250	=250	=250	=250
2.A-	2cc	2.ee-	4gg-
.	.	.	4ff
.	[4e-	.	4gg-
=251	=251	=251	=251
2.d-	4e-]	2.a-	4gg-
.	4d-	.	4ff
.	4d-	.	4ff
=252	=252	=252	=252
2.A	2.c	2.e-	4r
.	.	.	4ff
.	.	.	4ff
=253	=253	=253	=253
2.B-	2.d-	2.d-	4ff
.	.	.	4gg-
.	.	.	4ff
=254	=254	=254	=254
2.c	2.e-	2.a	4r
.	.	.	4ff
.	.	.	4ff
=255	=255	=255	=255
2.d-	2.f	2.b-	4ff
.	.	.	4gg-
.	.	.	4ff
=256	=256	=256	=256
2.A	2.c	2.e-	4r
.	.	.	4ff
.	.	.	4ff
=257	=257	=257	=257
2.B-	2.d-	2.d-	4ff
.	.	.	4gg-
.	.	.	4ff
=258	=258	=258	=258
2.A-	2.c	2.f	4r
.	.	.	4ff
.	.	.	4ff
=259	=259	=259	=259
[2.G	2.d	2.b	4ff
.	.	.	4gg
.	.	.	4ff
=260	=260	=260	=260
2.G_	4c	4cc	4ee-
.	4d	4b	4dd
.	4c	4cc	4ee-
=261	=261	=261	=261
4G]	4g	4b	4dd
2r	4b	4dd	4gg
.	4b	4dd	4gg
=262	=262	=262	=262
2.r	4cc	4ee-	2gg
.	4dd	4ff	.
.	4cc	4ee-	4ff#
=263	=263	=263	=263
4r	4b	4dd	2gg
4GG	4r	4b	.
4GG	4g	4ff	4bb
=264	=264	=264	=264
4AA-	2f#	4ee-	2ccc
4GG	.	4r	.
4AA-	4c	4cc	4ff#
=265	=265	=265	=265
4GG	4d	4b	4gg
2r	2r	4gg	2r
.	.	4gg	.
=266	=266	=266	=266
2.r	2.r	8gg	2.r
.	.	8ff#	.
.	.	8gg	.
.	.	8ee	.
.	.	8ff	.
.	.	8dd	.
=267	=267	=267	=267
4r	4r	[2.cc	4r
4e	4g	.	4ccc
4e	4g	.	4ccc
=268	=268	=268	=268
4e	4g	4cc]	[2.ccc
4d	4f	4b	.
4e	4g	4cc	.
=269	=269	=269	=269
2.f	2.a	4cc#	2.ccc_
.	.	2dd	.
=270	=270	=270	=270
4g	4b-	4ee	2.ccc_
4f#	4a	4dd#	.
4g	4b-	4ee	.
=271	=271	=271	=271
2.a	2.cc	2gg	2.ccc_
.	.	4ff	.
=272	=272	=272	=272
2.e	4g	4bb-	2.ccc_
.	4f#	4aa	.
.	4g	4bb-	.
=273	=273	=273	=273
2.f	4a	4aa	4ccc]
.	4r	4ff	4aa
.	4a	4dd	4ff
=274	=274	=274	=274
2g	4g	4cc	4ee
.	4r	4dd	4ff
4G	4f	4b	4dd
=275	=275	=275	=275
4c	4e	8c	4cc
.	.	16d	.
.	.	16e	.
2r	2r	16f	2r
.	.	16g	.
.	.	16a	.
.	.	16b	.
.	.	16cc	.
.	.	16dd	.
.	.	16ee	.
.	.	16ff	.
=276	=276	=276	=276
8C	8E	4gg	2.r
16D	16F	.	.
16E	16G	.	.
16F	16A	2r	.
16G	16B	.	.
16A	16c	.	.
16B	16d	.	.
16c	16e	.	.
16d	16f	.	.
16e	16g	.	.
16d	16f	.	.
=277	=277	=277	=277
4c	4e	2.r	8cc
.	.	.	16dd
.	.	.	16ee
2r	2r	.	16ff
.	.	.	16gg
.	.	.	16aa
.	.	.	16bb
.	.	.	16ccc
.	.	.	16ddd
.	.	.	16eee
.	.	.	16fff
=278	=278	=278	=278
2.E	2.g	2.cc	8ggg
.	.	.	8eee
.	.	.	8ccc
.	.	.	8gg
.	.	.	8ee
.	.	.	8cc
=279	=279	=279	=279
4F	4c	4a	4a
2r	2r	2r	4aa
.	.	.	4r
=280	=280	=280	=280
2.r	2.r	4f	8r
.	.	.	8gg#
.	.	2r	8aa
.	.	.	8ff#
.	.	.	8gg
.	.	.	8ee
=281	=281	=281	=281
2.r	2.r	2.r	8ff
.	.	.	8cc#
.	.	.	8dd
.	.	.	8ee
.	.	.	8ff
.	.	.	8dd
=282	=282	=282	=282
4G	2.B	4r	[2.dd
4G	.	4f	.
4G	.	4f	.
=283	=283	=283	=283
4GG	2.b	4f	2.dd]
4GG	.	4e	.
4GG	.	4f	.
=284	=284	=284	=284
8CC	4cc	4e	4cc
8EE	.	.	.
8GG	2r	2r	2r
8C	.	.	.
8E	.	.	.
8G	.	.	.
=285	=285	=285	=285
8GG	2.F	2B	2.g
8BB	.	.	.
8D	.	.	.
8F	.	.	.
8G	.	4d	.
8B	.	.	.
=286	=286	=286	=286
4c	8C	4c	4e
.	8E	.	.
2r	8G	2r	2r
.	8c	.	.
.	8e	.	.
.	8g	.	.
=287	=287	=287	=287
2.r	8G	2.d	2.ff
.	8B	.	.
.	8d	.	.
.	8f	.	.
.	8g	.	.
.	8b	.	.
=288	=288	=288	=288
2.r	4cc	8c	4ee
.	.	8e	.
.	2r	8g	2r
.	.	8cc	.
.	.	8ee	.
.	.	8gg	.
=289	=289	=289	=289
2.GG	2.d	8ff	2.bb
.	.	8dd	.
.	.	8b	.
.	.	8g	.
.	.	8f	.
.	.	8d	.
=290	=290	=290	=290
4CC	4e	4c	4ccc
2r	2r	2r	2r
==	==	==	==
*-	*-	*-	*-
!!!RWG1: This file contains only pitch and duration data.
!!!RWG2: Transposing instruments are not transposed.
!!!RWG3: Spines may have incompatible meters.
!!!RWG4: Durations of rests and tied notes may be interpreted.
!!!RWG: Key is interpreted using the Humdrum key tool.
!!!GTL: 6 Quartetti ("Prussian")
!!!AFT: stage1
!!!END: 1997/04/15
!!!KEY: 1226851463
!!!EMD: Converted from MuseData to Humdrum Dec 16, 2000, by Andreas Kornstaedt using muse2kern.
!!!EMD: Manual editing by Craig Sapp, Nov 2001
